X: 19613
T: January Thaw
R: jig
M: 6/8
K: Gmajor
|:~A,2A, A,B,C|D2D DEF|FGA AFD|GFE C2D|
EDC EDC|DEE EDC|~A,2A, A,B,C|D2D DEF|
FGA AFD|GFE C2D|EDC EDC|EDC D3:|
|:def fed|^cA^c e^cA|ABc cAG|FDF AFD|
def fed|^cAB =c2A|FAA GAA|EFG AFD:|

